app/component-library/components/Icons/Icon/assets/user-circle-add.svg

<svg width="24" height="24" viewBox="0 0 24 24" fill="none" xmlns="http://www.w3.org/2000/svg">
<path d="M21.3003 3.26667C20.6146 2.48571 19.5955 2 18.4717 2C17.4051 2 16.4336 2.4381 15.7384 3.15238C15.3384 3.5619 15.0336 4.05714 14.8527 4.60952C14.7289 4.99048 14.6622 5.39048 14.6622 5.80952C14.6622 6.52381 14.8622 7.2 15.2146 7.77143C15.4051 8.09524 15.6527 8.39048 15.9384 8.6381C16.6051 9.24762 17.4908 9.61905 18.4717 9.61905C18.8908 9.61905 19.2908 9.55238 19.6622 9.41905C20.5384 9.14286 21.2717 8.54286 21.7289 7.77143C21.9289 7.44762 22.0812 7.07619 22.167 6.69524C22.2432 6.40952 22.2813 6.11429 22.2813 5.80952C22.2813 4.8381 21.9098 3.94286 21.3003 3.26667ZM19.8908 6.50476H19.186V7.24762C19.186 7.6381 18.8622 7.9619 18.4717 7.9619C18.0812 7.9619 17.7574 7.6381 17.7574 7.24762V6.50476H17.0527C16.6622 6.50476 16.3384 6.18095 16.3384 5.79048C16.3384 5.4 16.6622 5.07619 17.0527 5.07619H17.7574V4.4C17.7574 4.00952 18.0812 3.68571 18.4717 3.68571C18.8622 3.68571 19.186 4.00952 19.186 4.4V5.07619H19.8908C20.2812 5.07619 20.6051 5.4 20.6051 5.79048C20.6051 6.18095 20.2908 6.50476 19.8908 6.50476Z" fill="currentColor"/>
<path d="M21.3289 12.4762C21.3289 11.2286 21.0908 10.0286 20.6432 8.93333C20.3479 9.14286 20.0146 9.30476 19.6622 9.41905C19.5574 9.45714 19.4527 9.48571 19.3384 9.51429C19.7003 10.4286 19.9003 11.4286 19.9003 12.4762C19.9003 14.6857 19.0051 16.6952 17.5574 18.1619C17.2813 17.8095 16.9289 17.4857 16.5098 17.2095C13.9289 15.4762 9.7003 15.4762 7.1003 17.2095C6.68125 17.4857 6.33839 17.8095 6.05268 18.1619C4.60506 16.6952 3.70982 14.6857 3.70982 12.4762C3.70982 8.00952 7.33839 4.38095 11.8051 4.38095C12.8432 4.38095 13.8432 4.58095 14.7574 4.94286C14.786 4.82857 14.8146 4.72381 14.8527 4.60952C14.967 4.25714 15.1289 3.93333 15.3479 3.6381C14.2527 3.19048 13.0527 2.95238 11.8051 2.95238C6.55744 2.95238 2.28125 7.22857 2.28125 12.4762C2.28125 15.2381 3.47173 17.7238 5.35744 19.4667C5.35744 19.4762 5.35744 19.4762 5.34792 19.4857C5.44315 19.581 5.55744 19.6571 5.65268 19.7429C5.70982 19.7905 5.75744 19.8381 5.81458 19.8762C5.98601 20.019 6.17649 20.1524 6.35744 20.2857C6.42411 20.3333 6.48125 20.3714 6.54792 20.419C6.72887 20.5429 6.91935 20.6571 7.11935 20.7619C7.18601 20.8 7.2622 20.8476 7.32887 20.8857C7.51935 20.9905 7.71935 21.0857 7.92887 21.1714C8.00506 21.2095 8.08125 21.2476 8.15744 21.2762C8.36696 21.3619 8.57649 21.4381 8.78601 21.5048C8.8622 21.5333 8.93839 21.5619 9.01458 21.581C9.24315 21.6476 9.47173 21.7048 9.7003 21.7619C9.76696 21.781 9.83363 21.8 9.90982 21.8095C10.1765 21.8667 10.4432 21.9048 10.7193 21.9333C10.7574 21.9333 10.7955 21.9429 10.8336 21.9524C11.1574 21.981 11.4812 22 11.8051 22C12.1289 22 12.4527 21.981 12.767 21.9524C12.8051 21.9524 12.8432 21.9429 12.8813 21.9333C13.1574 21.9048 13.4241 21.8667 13.6908 21.8095C13.7574 21.8 13.8241 21.7714 13.9003 21.7619C14.1289 21.7048 14.367 21.6571 14.586 21.581C14.6622 21.5524 14.7384 21.5238 14.8146 21.5048C15.0241 21.4286 15.2432 21.3619 15.4432 21.2762C15.5193 21.2476 15.5955 21.2095 15.6717 21.1714C15.8717 21.0857 16.0717 20.9905 16.2717 20.8857C16.3479 20.8476 16.4146 20.8 16.4812 20.7619C16.6717 20.6476 16.8622 20.5429 17.0527 20.419C17.1193 20.381 17.1765 20.3333 17.2432 20.2857C17.4336 20.1524 17.6146 20.019 17.786 19.8762C17.8432 19.8286 17.8908 19.781 17.9479 19.7429C18.0527 19.6571 18.1574 19.5714 18.2527 19.4857C18.2527 19.4762 18.2527 19.4762 18.2432 19.4667C20.1384 17.7238 21.3289 15.2381 21.3289 12.4762Z" fill="currentColor"/>
<path d="M11.8051 7.64779C9.83363 7.64779 8.23363 9.24779 8.23363 11.2192C8.23363 13.1525 9.74792 14.724 11.7574 14.7811C11.786 14.7811 11.8241 14.7811 11.8432 14.7811C11.8622 14.7811 11.8908 14.7811 11.9098 14.7811C11.9193 14.7811 11.9289 14.7811 11.9289 14.7811C13.8527 14.7145 15.367 13.1525 15.3765 11.2192C15.3765 9.24779 13.7765 7.64779 11.8051 7.64779Z" fill="currentColor"/>
</svg>

<svg xmlns="http://www.w3.org/2000/svg" width="24" height="24" viewBox="0 0 24 24" fill="none"><path fill="currentColor" d="M21.3 3.267A3.756 3.756 0 0 0 18.472 2a3.805 3.805 0 0 0-3.81 3.81c0 .714.2 1.39.553 1.961.19.324.438.62.723.867a3.734 3.734 0 0 0 3.724.781 3.713 3.713 0 0 0 2.067-1.648c.2-.323.352-.695.438-1.076.076-.285.114-.58.114-.885 0-.972-.371-1.867-.98-2.543Zm-1.41 3.238h-.704v.743a.72.72 0 0 1-.714.714.72.72 0 0 1-.715-.714v-.743h-.704a.72.72 0 0 1-.715-.715.72.72 0 0 1 .715-.714h.704V4.4a.72.72 0 0 1 .715-.714.72.72 0 0 1 .714.714v.676h.705a.713.713 0 1 1 0 1.429Z"/><path fill="currentColor" d="M21.329 12.476a9.353 9.353 0 0 0-.686-3.543 3.63 3.63 0 0 1-.98.486c-.106.038-.21.067-.325.095a8.076 8.076 0 0 1-1.781 8.648 4.404 4.404 0 0 0-1.047-.953c-2.581-1.733-6.81-1.733-9.41 0-.419.277-.762.6-1.047.953a8.076 8.076 0 0 1-2.343-5.686c0-4.466 3.628-8.095 8.095-8.095 1.038 0 2.038.2 2.952.562.029-.114.058-.22.096-.333.114-.353.276-.677.495-.972a9.352 9.352 0 0 0-3.543-.686c-5.248 0-9.524 4.277-9.524 9.524 0 2.762 1.19 5.248 3.076 6.99 0 .01 0 .01-.01.02.096.095.21.171.306.257.057.048.104.095.162.133.171.143.361.276.542.41.067.047.124.085.19.133.182.124.372.238.572.343.067.038.143.086.21.124.19.105.39.2.6.285.076.038.152.077.228.105.21.086.42.162.629.229.076.028.152.057.229.076.228.067.457.124.685.18.067.02.134.039.21.049.267.057.533.095.81.123.037 0 .075.01.114.02.323.028.647.047.971.047.324 0 .648-.019.962-.048.038 0 .076-.01.114-.019.276-.028.543-.066.81-.123.066-.01.133-.039.21-.048.228-.057.466-.105.685-.181.076-.029.152-.057.229-.076.21-.076.428-.143.628-.229.076-.028.152-.067.229-.105.2-.085.4-.18.6-.285.076-.038.143-.086.21-.124.19-.114.38-.22.57-.343.067-.038.125-.086.191-.133.19-.134.372-.267.543-.41.057-.047.105-.095.162-.133.105-.086.21-.172.305-.257 0-.01 0-.01-.01-.02 1.895-1.742 3.086-4.228 3.086-6.99Z"/><path fill="currentColor" d="M11.805 7.648a3.573 3.573 0 0 0-3.571 3.571c0 1.934 1.514 3.505 3.523 3.562h.172a3.565 3.565 0 0 0 3.447-3.562c0-1.971-1.6-3.571-3.57-3.571Z"/></svg>
